src/img/social/twitterFooterHover.svg

<svg width="34" height="34" viewBox="0 0 34 34" fill="none" xmlns="http://www.w3.org/2000/svg">
    <path fill-rule="evenodd" clip-rule="evenodd" d="M17 34C26.3888 34 34 26.3888 34 17C34 7.61116 26.3888 0 17 0C7.61116 0 0 7.61116 0 17C0 26.3888 7.61116 34 17 34Z" fill="#FED300"/>
    <path d="M24.7904 12.1344C24.2172 12.3903 23.6006 12.5634 22.954 12.6407C23.6142 12.2424 24.1209 11.6123 24.36 10.8602C23.7422 11.2292 23.0577 11.4968 22.3298 11.6411C21.7466 11.0158 20.9156 10.625 19.9955 10.625C18.2302 10.625 16.7984 12.0665 16.7984 13.8438C16.7984 14.0961 16.8268 14.3416 16.8816 14.5773C14.2246 14.4432 11.8686 13.1618 10.2917 11.2138C10.0165 11.6891 9.85866 12.2424 9.85866 12.8322C9.85866 13.9487 10.4235 14.9343 11.2809 15.5114C10.7571 15.4948 10.2638 15.35 9.83291 15.1083C9.83267 15.122 9.83267 15.1357 9.83267 15.1491C9.83267 16.7087 10.9352 18.0095 12.3975 18.305C12.1295 18.3789 11.8465 18.4181 11.5553 18.4181C11.3489 18.4181 11.1488 18.3981 10.9538 18.3607C11.3605 19.6392 12.541 20.5698 13.9404 20.596C12.846 21.4594 11.4676 21.9739 9.96929 21.9739C9.71179 21.9739 9.45667 21.9587 9.20703 21.9287C10.6212 22.8423 12.3021 23.375 14.1075 23.375C19.9881 23.375 23.2041 18.4704 23.2041 14.2166C23.2041 14.0771 23.201 13.9381 23.1948 13.8003C23.82 13.3466 24.3619 12.7799 24.7904 12.1344Z" fill="#12122F"/>
</svg>

<svg width="34" height="34" fill="none" xmlns="http://www.w3.org/2000/svg"><path fill-rule="evenodd" clip-rule="evenodd" d="M17 34c9.389 0 17-7.611 17-17S26.389 0 17 0 0 7.611 0 17s7.611 17 17 17z" fill="#FED300"/><path d="M24.79 12.134a6.346 6.346 0 01-1.836.507 3.224 3.224 0 001.406-1.78 6.374 6.374 0 01-2.03.78 3.184 3.184 0 00-2.334-1.016c-1.766 0-3.198 1.441-3.198 3.219 0 .252.029.498.084.733a9.055 9.055 0 01-6.59-3.363 3.221 3.221 0 00-.433 1.618c0 1.117.565 2.102 1.422 2.68a3.16 3.16 0 01-1.448-.404v.041c0 1.56 1.102 2.86 2.565 3.156a3.167 3.167 0 01-1.444.056 3.203 3.203 0 002.986 2.235 6.388 6.388 0 01-4.733 1.333 9 9 0 004.9 1.446c5.881 0 9.097-4.905 9.097-9.158 0-.14-.003-.279-.01-.417a6.508 6.508 0 001.596-1.666z" fill="#12122F"/></svg>
